%
(Header)
(Generated by gcodetools from Inkscape.)
M3
(Header end.)
G21 (All units in mm)

(Start cutting path id: path3378)
(Change tool to Default tool)

G00 Z5.000000
G00 X70.312136 Y27.525527

G01 Z0.000000 F20.0(Penetrate)
G01 X70.312136 Y31.047793 Z0.000000 F20.000000
G01 X73.823032 Y29.298029 Z0.000000
G01 X73.823032 Y25.775763 Z0.000000
G01 X70.312136 Y27.525527 Z0.000000
G00 Z5.000000

(End cutting path id: path3378)


(Start cutting path id: path3378)
(Change tool to Default tool)

G00 Z5.000000
G00 X73.518141 Y29.241529

G01 Z0.000000 F20.0(Penetrate)
G01 X70.493004 Y30.754271 Z0.000000 F20.000000
G01 X70.493004 Y27.728786 Z0.000000
G01 X73.518141 Y29.241529 Z0.000000
G00 Z5.000000

(End cutting path id: path3378)


(Start cutting path id: path3378)
(Change tool to Default tool)

G00 Z5.000000
G00 X70.617027 Y27.582025

G01 Z0.000000 F20.0(Penetrate)
G01 X73.642511 Y26.080654 Z0.000000 F20.000000
G01 X73.642511 Y29.094767 Z0.000000
G01 X70.617027 Y27.582025 Z0.000000
G00 Z5.000000

(End cutting path id: path3378)


(Start cutting path id: path3378)
(Change tool to Default tool)

G00 Z5.000000
G00 X69.205916 Y32.616689

G01 Z0.000000 F20.0(Penetrate)
G01 X74.838992 Y35.438911 Z0.000000 F20.000000
G01 X80.472413 Y32.616689 Z0.000000
G01 X80.472413 Y26.972245 Z0.000000
G01 X74.838992 Y24.161390 Z0.000000
G01 X69.205916 Y26.972245 Z0.000000
G01 X69.205916 Y32.616689 Z0.000000
G00 Z5.000000

(End cutting path id: path3378)


(Start cutting path id: path3378)
(Change tool to Default tool)

G00 Z5.000000
G00 X74.929253 Y24.409782

G01 Z0.000000 F20.0(Penetrate)
G01 X80.291545 Y27.085244 Z0.000000 F20.000000
G01 X80.291545 Y32.413774 Z0.000000
G01 X74.929253 Y29.738313 Z0.000000
G01 X74.929253 Y24.409782 Z0.000000
G00 Z5.000000

(End cutting path id: path3378)


(Start cutting path id: path3378)
(Change tool to Default tool)

G00 Z5.000000
G00 X74.748729 Y29.738313

G01 Z0.000000 F20.0(Penetrate)
G01 X69.386439 Y32.413774 Z0.000000 F20.000000
G01 X69.386439 Y27.085244 Z0.000000
G01 X74.748729 Y24.409782 Z0.000000
G01 X74.748729 Y29.738313 Z0.000000
G00 Z5.000000

(End cutting path id: path3378)


(Start cutting path id: path3378)
(Change tool to Default tool)

G00 Z5.000000
G00 X74.838992 Y35.235996

G01 Z0.000000 F20.0(Penetrate)
G01 X69.499438 Y32.560535 Z0.000000 F20.000000
G01 X74.838992 Y29.896098 Z0.000000
G01 X80.167520 Y32.560535 Z0.000000
G01 X74.838992 Y35.235996 Z0.000000
G00 Z5.000000

(End cutting path id: path3378)


(Start cutting path id: path3376)
(Change tool to Default tool)

G00 Z5.000000
G00 X57.255568 Y32.616689

G01 Z0.000000 F20.0(Penetrate)
G01 X62.888645 Y35.438911 Z0.000000 F20.000000
G01 X68.522066 Y32.616689 Z0.000000
G01 X68.522066 Y26.972245 Z0.000000
G01 X62.888645 Y24.161390 Z0.000000
G01 X57.255568 Y26.972245 Z0.000000
G01 X57.255568 Y32.616689 Z0.000000
G00 Z5.000000

(End cutting path id: path3376)


(Start cutting path id: path3376)
(Change tool to Default tool)

G00 Z5.000000
G00 X58.666679 Y27.582025

G01 Z0.000000 F20.0(Penetrate)
G01 X62.888645 Y25.470873 Z0.000000 F20.000000
G01 X67.110955 Y27.582025 Z0.000000
G01 X62.888645 Y29.692836 Z0.000000
G01 X58.666679 Y27.582025 Z0.000000
G00 Z5.000000

(End cutting path id: path3376)


(Start cutting path id: path3376)
(Change tool to Default tool)

G00 Z5.000000
G00 X62.978905 Y24.409782

G01 Z0.000000 F20.0(Penetrate)
G01 X68.341198 Y27.085244 Z0.000000 F20.000000
G01 X68.341198 Y32.413774 Z0.000000
G01 X67.415501 Y31.950752 Z0.000000
G01 X67.415501 Y27.525527 Z0.000000
G01 X62.978905 Y25.313085 Z0.000000
G01 X62.978905 Y24.409782 Z0.000000
G00 Z5.000000

(End cutting path id: path3376)


(Start cutting path id: path3376)
(Change tool to Default tool)

G00 Z5.000000
G00 X67.223609 Y31.950752

G01 Z0.000000 F20.0(Penetrate)
G01 X62.978905 Y34.072930 Z0.000000 F20.000000
G01 X62.978905 Y29.850968 Z0.000000
G01 X67.223609 Y27.728786 Z0.000000
G01 X67.223609 Y31.950752 Z0.000000
G00 Z5.000000

(End cutting path id: path3376)


(Start cutting path id: path3376)
(Change tool to Default tool)

G00 Z5.000000
G00 X62.798382 Y34.072930

G01 Z0.000000 F20.0(Penetrate)
G01 X58.542657 Y31.950752 Z0.000000 F20.000000
G01 X58.542657 Y27.728786 Z0.000000
G01 X62.798382 Y29.850968 Z0.000000
G01 X62.798382 Y34.072930 Z0.000000
G00 Z5.000000

(End cutting path id: path3376)


(Start cutting path id: path3376)
(Change tool to Default tool)

G00 Z5.000000
G00 X58.361789 Y31.950752

G01 Z0.000000 F20.0(Penetrate)
G01 X57.436092 Y32.413774 Z0.000000 F20.000000
G01 X57.436092 Y27.085244 Z0.000000
G01 X62.798382 Y24.409782 Z0.000000
G01 X62.798382 Y25.313085 Z0.000000
G01 X58.361789 Y27.525527 Z0.000000
G01 X58.361789 Y31.950752 Z0.000000
G00 Z5.000000

(End cutting path id: path3376)


(Start cutting path id: path3376)
(Change tool to Default tool)

G00 Z5.000000
G00 X62.888645 Y35.235996

G01 Z0.000000 F20.0(Penetrate)
G01 X57.549091 Y32.560535 Z0.000000 F20.000000
G01 X58.452049 Y32.108881 Z0.000000
G01 X62.888645 Y34.332690 Z0.000000
G01 X67.325238 Y32.108881 Z0.000000
G01 X68.217173 Y32.560535 Z0.000000
G01 X62.888645 Y35.235996 Z0.000000
G00 Z5.000000

(End cutting path id: path3376)


(Start cutting path id: path3374)
(Change tool to Default tool)

G00 Z5.000000
G00 X45.305221 Y32.616689

G01 Z0.000000 F20.0(Penetrate)
G01 X50.938298 Y35.438911 Z0.000000 F20.000000
G01 X56.571719 Y32.616689 Z0.000000
G01 X56.571719 Y26.972245 Z0.000000
G01 X50.938298 Y24.161390 Z0.000000
G01 X45.305221 Y26.972245 Z0.000000
G01 X45.305221 Y32.616689 Z0.000000
G00 Z5.000000

(End cutting path id: path3374)


(Start cutting path id: path3374)
(Change tool to Default tool)

G00 Z5.000000
G00 X46.716332 Y27.582025

G01 Z0.000000 F20.0(Penetrate)
G01 X50.938298 Y25.470873 Z0.000000 F20.000000
G01 X55.160607 Y27.582025 Z0.000000
G01 X50.938298 Y29.692836 Z0.000000
G01 X46.716332 Y27.582025 Z0.000000
G00 Z5.000000

(End cutting path id: path3374)


(Start cutting path id: path3374)
(Change tool to Default tool)

G00 Z5.000000
G00 X51.028558 Y24.409782

G01 Z0.000000 F20.0(Penetrate)
G01 X56.390851 Y27.085244 Z0.000000 F20.000000
G01 X56.390851 Y32.413774 Z0.000000
G01 X55.465153 Y31.950752 Z0.000000
G01 X55.465153 Y27.525527 Z0.000000
G01 X51.028558 Y25.313085 Z0.000000
G01 X51.028558 Y24.409782 Z0.000000
G00 Z5.000000

(End cutting path id: path3374)


(Start cutting path id: path3374)
(Change tool to Default tool)

G00 Z5.000000
G00 X55.273262 Y31.950752

G01 Z0.000000 F20.0(Penetrate)
G01 X51.028558 Y34.072930 Z0.000000 F20.000000
G01 X51.028558 Y29.850968 Z0.000000
G01 X55.273262 Y27.728786 Z0.000000
G01 X55.273262 Y31.950752 Z0.000000
G00 Z5.000000

(End cutting path id: path3374)


(Start cutting path id: path3374)
(Change tool to Default tool)

G00 Z5.000000
G00 X50.848035 Y34.072930

G01 Z0.000000 F20.0(Penetrate)
G01 X46.592310 Y31.950752 Z0.000000 F20.000000
G01 X46.592310 Y27.728786 Z0.000000
G01 X50.848035 Y29.850968 Z0.000000
G01 X50.848035 Y34.072930 Z0.000000
G00 Z5.000000

(End cutting path id: path3374)


(Start cutting path id: path3374)
(Change tool to Default tool)

G00 Z5.000000
G00 X46.411442 Y31.950752

G01 Z0.000000 F20.0(Penetrate)
G01 X45.485745 Y32.413774 Z0.000000 F20.000000
G01 X45.485745 Y27.085244 Z0.000000
G01 X50.848035 Y24.409782 Z0.000000
G01 X50.848035 Y25.313085 Z0.000000
G01 X46.411442 Y27.525527 Z0.000000
G01 X46.411442 Y31.950752 Z0.000000
G00 Z5.000000

(End cutting path id: path3374)


(Start cutting path id: path3374)
(Change tool to Default tool)

G00 Z5.000000
G00 X50.938298 Y35.235996

G01 Z0.000000 F20.0(Penetrate)
G01 X45.598743 Y32.560535 Z0.000000 F20.000000
G01 X46.501702 Y32.108881 Z0.000000
G01 X50.938298 Y34.332690 Z0.000000
G01 X55.374890 Y32.108881 Z0.000000
G01 X56.266825 Y32.560535 Z0.000000
G01 X50.938298 Y35.235996 Z0.000000
G00 Z5.000000

(End cutting path id: path3374)


(Start cutting path id: path3372)
(Change tool to Default tool)

G00 Z5.000000
G00 X33.354874 Y32.616689

G01 Z0.000000 F20.0(Penetrate)
G01 X38.987950 Y35.438911 Z0.000000 F20.000000
G01 X44.621371 Y32.616689 Z0.000000
G01 X44.621371 Y26.972245 Z0.000000
G01 X38.987950 Y24.161390 Z0.000000
G01 X33.354874 Y26.972245 Z0.000000
G01 X33.354874 Y32.616689 Z0.000000
G00 Z5.000000

(End cutting path id: path3372)


(Start cutting path id: path3372)
(Change tool to Default tool)

G00 Z5.000000
G00 X34.641962 Y27.728786

G01 Z0.000000 F20.0(Penetrate)
G01 X35.454661 Y28.135308 Z0.000000 F20.000000
G01 X34.641962 Y28.541485 Z0.000000
G01 X34.641962 Y27.728786 Z0.000000
G00 Z5.000000

(End cutting path id: path3372)


(Start cutting path id: path3372)
(Change tool to Default tool)

G00 Z5.000000
G00 X34.765985 Y27.582025

G01 Z0.000000 F20.0(Penetrate)
G01 X38.987950 Y25.470873 Z0.000000 F20.000000
G01 X43.210260 Y27.582025 Z0.000000
G01 X40.094515 Y29.139897 Z0.000000
G01 X36.775509 Y27.480397 Z0.000000
G01 X35.657920 Y28.033680 Z0.000000
G01 X34.765985 Y27.582025 Z0.000000
G00 Z5.000000

(End cutting path id: path3372)


(Start cutting path id: path3372)
(Change tool to Default tool)

G00 Z5.000000
G00 X34.641962 Y29.941228

G01 Z0.000000 F20.0(Penetrate)
G01 X35.454661 Y30.347749 Z0.000000 F20.000000
G01 X34.641962 Y30.754271 Z0.000000
G01 X34.641962 Y29.941228 Z0.000000
G00 Z5.000000

(End cutting path id: path3372)


(Start cutting path id: path3372)
(Change tool to Default tool)

G00 Z5.000000
G00 X34.765985 Y29.794467

G01 Z0.000000 F20.0(Penetrate)
G01 X36.775509 Y28.789877 Z0.000000 F20.000000
G01 X37.667100 Y29.241529 Z0.000000
G01 X35.657920 Y30.246118 Z0.000000
G01 X34.765985 Y29.794467 Z0.000000
G00 Z5.000000

(End cutting path id: path3372)


(Start cutting path id: path3372)
(Change tool to Default tool)

G00 Z5.000000
G00 X36.865772 Y27.728786

G01 Z0.000000 F20.0(Penetrate)
G01 X38.784688 Y28.688246 Z0.000000 F20.000000
G01 X37.881730 Y29.139897 Z0.000000
G01 X36.865772 Y28.631748 Z0.000000
G01 X36.865772 Y27.728786 Z0.000000
G00 Z5.000000

(End cutting path id: path3372)


(Start cutting path id: path3372)
(Change tool to Default tool)

G00 Z5.000000
G00 X43.322915 Y30.754271

G01 Z0.000000 F20.0(Penetrate)
G01 X40.297430 Y29.241529 Z0.000000 F20.000000
G01 X43.322915 Y27.728786 Z0.000000
G01 X43.322915 Y30.754271 Z0.000000
G00 Z5.000000

(End cutting path id: path3372)


(Start cutting path id: path3372)
(Change tool to Default tool)

G00 Z5.000000
G00 X39.078211 Y24.409782

G01 Z0.000000 F20.0(Penetrate)
G01 X44.440503 Y27.085244 Z0.000000 F20.000000
G01 X44.440503 Y32.413774 Z0.000000
G01 X39.078211 Y29.738313 Z0.000000
G01 X39.078211 Y28.835007 Z0.000000
G01 X43.514806 Y31.047793 Z0.000000
G01 X43.514806 Y27.525527 Z0.000000
G01 X39.078211 Y25.313085 Z0.000000
G01 X39.078211 Y24.409782 Z0.000000
G00 Z5.000000

(End cutting path id: path3372)


(Start cutting path id: path3372)
(Change tool to Default tool)

G00 Z5.000000
G00 X38.897687 Y29.738313

G01 Z0.000000 F20.0(Penetrate)
G01 X33.535397 Y32.413774 Z0.000000 F20.000000
G01 X33.535397 Y27.085244 Z0.000000
G01 X38.897687 Y24.409782 Z0.000000
G01 X38.897687 Y25.313085 Z0.000000
G01 X34.461095 Y27.525527 Z0.000000
G01 X34.461095 Y28.835007 Z0.000000
G01 X36.673881 Y27.728786 Z0.000000
G01 X36.673881 Y28.631748 Z0.000000
G01 X34.461095 Y29.738313 Z0.000000
G01 X34.461095 Y31.047793 Z0.000000
G01 X38.897687 Y28.835007 Z0.000000
G01 X38.897687 Y29.738313 Z0.000000
G00 Z5.000000

(End cutting path id: path3372)


(Start cutting path id: path3372)
(Change tool to Default tool)

G00 Z5.000000
G00 X38.987950 Y35.235996

G01 Z0.000000 F20.0(Penetrate)
G01 X33.648396 Y32.560535 Z0.000000 F20.000000
G01 X38.987950 Y29.896098 Z0.000000
G01 X44.316478 Y32.560535 Z0.000000
G01 X38.987950 Y35.235996 Z0.000000
G00 Z5.000000

(End cutting path id: path3372)


(Start cutting path id: path3370)
(Change tool to Default tool)

G00 Z5.000000
G00 X21.404527 Y32.616689

G01 Z0.000000 F20.0(Penetrate)
G01 X27.037603 Y35.438911 Z0.000000 F20.000000
G01 X32.671024 Y32.616689 Z0.000000
G01 X32.671024 Y26.972245 Z0.000000
G01 X27.037603 Y24.161390 Z0.000000
G01 X25.841121 Y24.759803 Z0.000000
G01 X25.841121 Y26.972245 Z0.000000
G01 X24.825162 Y27.480397 Z0.000000
G01 X22.601009 Y26.374176 Z0.000000
G01 X21.404527 Y26.972245 Z0.000000
G01 X21.404527 Y32.616689 Z0.000000
G00 Z5.000000

(End cutting path id: path3370)


(Start cutting path id: path3370)
(Change tool to Default tool)

G00 Z5.000000
G00 X22.691615 Y28.541485

G01 Z0.000000 F20.0(Penetrate)
G01 X22.691615 Y26.622568 Z0.000000 F20.000000
G01 X24.610533 Y27.582025 Z0.000000
G01 X22.691615 Y28.541485 Z0.000000
G00 Z5.000000

(End cutting path id: path3370)


(Start cutting path id: path3370)
(Change tool to Default tool)

G00 Z5.000000
G00 X26.021644 Y27.085244

G01 Z0.000000 F20.0(Penetrate)
G01 X26.021644 Y24.872805 Z0.000000 F20.000000
G01 X26.947341 Y24.409782 Z0.000000
G01 X26.947341 Y29.738313 Z0.000000
G01 X26.021644 Y30.200988 Z0.000000
G01 X26.021644 Y27.988547 Z0.000000
G01 X22.510747 Y29.738313 Z0.000000
G01 X22.510747 Y31.950752 Z0.000000
G01 X21.585050 Y32.413774 Z0.000000
G01 X21.585050 Y27.085244 Z0.000000
G01 X22.510747 Y26.622568 Z0.000000
G01 X22.510747 Y28.835007 Z0.000000
G01 X26.021644 Y27.085244 Z0.000000
G00 Z5.000000

(End cutting path id: path3370)


(Start cutting path id: path3370)
(Change tool to Default tool)

G00 Z5.000000
G00 X27.940907 Y31.453970

G01 Z0.000000 F20.0(Penetrate)
G01 X27.037603 Y31.905622 Z0.000000 F20.000000
G01 X22.815638 Y29.794467 Z0.000000
G01 X25.841121 Y28.281725 Z0.000000
G01 X25.841121 Y30.404247 Z0.000000
G01 X27.940907 Y31.453970 Z0.000000
G00 Z5.000000

(End cutting path id: path3370)


(Start cutting path id: path3370)
(Change tool to Default tool)

G00 Z5.000000
G00 X30.153348 Y32.560535

G01 Z0.000000 F20.0(Penetrate)
G01 X27.127864 Y34.072930 Z0.000000 F20.000000
G01 X27.127864 Y32.063751 Z0.000000
G01 X28.144167 Y31.555598 Z0.000000
G01 X30.153348 Y32.560535 Z0.000000
G00 Z5.000000

(End cutting path id: path3370)


(Start cutting path id: path3370)
(Change tool to Default tool)

G00 Z5.000000
G00 X26.947341 Y34.072930

G01 Z0.000000 F20.0(Penetrate)
G01 X22.691615 Y31.950752 Z0.000000 F20.000000
G01 X22.691615 Y29.941228 Z0.000000
G01 X26.947341 Y32.063751 Z0.000000
G01 X26.947341 Y34.072930 Z0.000000
G00 Z5.000000

(End cutting path id: path3370)


(Start cutting path id: path3370)
(Change tool to Default tool)

G00 Z5.000000
G00 X27.127864 Y24.409782

G01 Z0.000000 F20.0(Penetrate)
G01 X32.490156 Y27.085244 Z0.000000 F20.000000
G01 X32.490156 Y32.413774 Z0.000000
G01 X27.127864 Y29.738313 Z0.000000
G01 X27.127864 Y24.409782 Z0.000000
G00 Z5.000000

(End cutting path id: path3370)


(Start cutting path id: path3370)
(Change tool to Default tool)

G00 Z5.000000
G00 X27.037603 Y35.235996

G01 Z0.000000 F20.0(Penetrate)
G01 X21.698049 Y32.560535 Z0.000000 F20.000000
G01 X22.601009 Y32.108881 Z0.000000
G01 X27.037603 Y34.332690 Z0.000000
G01 X30.571237 Y32.560535 Z0.000000
G01 X26.134643 Y30.347749 Z0.000000
G01 X27.037603 Y29.896098 Z0.000000
G01 X32.366131 Y32.560535 Z0.000000
G01 X27.037603 Y35.235996 Z0.000000
G00 Z5.000000

(End cutting path id: path3370)


(Footer)
M5
G00 X0.0000 Y0.0000
M2
(end)
%