%
(Header)
(Generated by gcodetools from Inkscape.)
M3
(Header end.)
G21 (All units in mm)

(Start cutting path id: path9540)
(Change tool to Default tool)

G00 Z5.000000
G00 X33.753276 Y19.457113

G01 Z0.000000 F20.0(Penetrate)
G02 X34.025757 Y20.958691 Z0.000000 I4.273655 J0.000000 F20.000000
G02 X34.657267 Y21.865924 Z0.000000 I2.099161 J-0.787782
G02 X35.477419 Y22.341315 Z0.000000 I1.675266 J-1.945031
G02 X36.498327 Y22.516359 Z0.000000 I1.020944 J-2.889806
G02 X37.614275 Y22.301023 Z0.000000 I-0.000032 J-2.999451
G02 X38.471678 Y21.725364 Z0.000000 I-0.921426 J-2.298748
G02 X39.015802 Y20.844453 Z0.000000 I-1.733931 J-1.679523
G02 X39.237867 Y19.539795 Z0.000000 I-3.721626 J-1.304681
G02 X39.133506 Y18.435458 Z0.000000 I-5.895639 J0.000044
G02 X38.898870 Y17.762125 Z0.000000 I-2.392996 J0.456338
G02 X38.482599 Y17.189950 Z0.000000 I-2.143536 J1.121961
G02 X37.912195 Y16.756158 Z0.000000 I-1.771640 J1.737660
G02 X37.240607 Y16.490457 Z0.000000 I-1.363573 J2.464969
G02 X36.498327 Y16.397869 Z0.000000 I-0.742280 J2.929142
G02 X35.361596 Y16.615090 Z0.000000 I-0.000000 J3.082900
G02 X34.511195 Y17.186107 Z0.000000 I0.890514 J2.244968
G02 X33.979378 Y18.065409 Z0.000000 I1.683313 J1.618574
G02 X33.753276 Y19.457113 Z0.000000 I4.170057 J1.391703
G01 X33.753276 Y19.457113 Z0.000000
G00 Z5.000000

(End cutting path id: path9540)


(Start cutting path id: path9540)
(Change tool to Default tool)

G00 Z5.000000
G00 X34.773024 Y19.457113

G01 Z0.000000 F20.0(Penetrate)
G03 X34.925304 Y18.389939 Z0.000000 I3.815384 J-0.000014 F20.000000
G03 X35.263605 Y17.773152 Z0.000000 I1.559992 J0.454467
G03 X35.820524 Y17.360067 Z0.000000 I1.234652 J1.082593
G03 X36.498327 Y17.213666 Z0.000000 I0.677803 J1.495833
G03 X37.170392 Y17.360073 Z0.000000 I0.000000 J1.615727
G03 X37.727537 Y17.775906 Z0.000000 I-0.686582 J1.501057
G03 X38.064591 Y18.395706 Z0.000000 I-1.221506 J1.065815
G03 X38.218119 Y19.490186 Z0.000000 I-3.824660 J1.094510
G03 X38.067192 Y20.519040 Z0.000000 I-3.582451 J-0.000028
G03 X37.724780 Y21.135564 Z0.000000 I-1.578305 J-0.473227
G03 X37.165939 Y21.549959 Z0.000000 I-1.251183 J-1.103295
G03 X36.498327 Y21.695047 Z0.000000 I-0.667631 J-1.463520
G03 X35.820055 Y21.549199 Z0.000000 I0.000019 J-1.650175
G03 X35.263605 Y21.138319 Z0.000000 I0.674251 J-1.495368
G03 X34.925502 Y20.523990 Z0.000000 I1.209733 J-1.065994
G03 X34.773024 Y19.457113 Z0.000000 I3.656089 J-1.066863
G01 X34.773024 Y19.457113 Z0.000000
G00 Z5.000000

(End cutting path id: path9540)


(Start cutting path id: path9538)
(Change tool to Default tool)

G00 Z5.000000
G00 X31.587000 Y16.530161

G01 Z0.000000 F20.0(Penetrate)
G01 X31.587000 Y24.610976 Z0.000000 F20.000000
G01 X32.579186 Y24.610976 Z0.000000
G01 X32.579186 Y16.530161 Z0.000000
G01 X31.587000 Y16.530161 Z0.000000
G00 Z5.000000

(End cutting path id: path9538)


(Start cutting path id: path9536)
(Change tool to Default tool)

G00 Z5.000000
G00 X29.073458 Y16.530161

G01 Z0.000000 F20.0(Penetrate)
G01 X29.073458 Y24.610976 Z0.000000 F20.000000
G01 X30.065644 Y24.610976 Z0.000000
G01 X30.065644 Y16.530161 Z0.000000
G01 X29.073458 Y16.530161 Z0.000000
G00 Z5.000000

(End cutting path id: path9536)


(Start cutting path id: path9534)
(Change tool to Default tool)

G00 Z5.000000
G00 X26.818987 Y18.415318

G01 Z0.000000 F20.0(Penetrate)
G01 X27.844247 Y18.288538 Z0.000000 F20.000000
G02 X27.481255 Y17.471308 Z0.000000 I-2.808013 J0.758017
G02 X26.945766 Y16.893962 Z0.000000 I-1.895988 J1.221522
G02 X26.242524 Y16.538795 Z0.000000 I-1.328396 J1.756460
G02 X25.270072 Y16.397869 Z0.000000 I-0.972453 J3.284722
G02 X24.081277 Y16.620606 Z0.000000 I0.000000 J3.283789
G02 X23.233331 Y17.188862 Z0.000000 I0.846728 J2.180256
G02 X22.701851 Y18.068149 Z0.000000 I1.731000 J1.646563
G02 X22.480922 Y19.407504 Z0.000000 I3.949374 J1.339352
G02 X22.705278 Y20.796384 Z0.000000 I4.411117 J0.000003
G02 X23.241599 Y21.700559 Z0.000000 I2.337719 J-0.775493
G02 X24.098652 Y22.294707 Z0.000000 I1.794368 J-1.673142
G02 X25.214950 Y22.516359 Z0.000000 I1.116329 J-2.700307
G02 X26.295007 Y22.300342 Z0.000000 I-0.000030 J-2.808235
G02 X27.133179 Y21.717095 Z0.000000 I-0.928295 J-2.227914
G02 X27.657633 Y20.831396 Z0.000000 I-1.764981 J-1.643232
G02 X27.877320 Y19.468136 Z0.000000 I-4.120156 J-1.363286
G02 X27.876399 Y19.379953 Z0.000000 I-4.264757 J0.000430
G02 X27.871808 Y19.203553 Z0.000000 I-16.829591 J0.349759
G01 X23.506183 Y19.203553 Z0.000000
G03 X23.695092 Y18.297114 Z0.000000 I3.126284 J0.178637
G03 X24.051886 Y17.726297 Z0.000000 I1.552542 J0.573514
G03 X24.600430 Y17.349371 Z0.000000 I1.179175 J1.128448
G03 X25.275584 Y17.213666 Z0.000000 I0.675154 J1.611655
G03 X25.795425 Y17.291833 Z0.000000 I0.000000 J1.767648
G03 X26.207138 Y17.500299 Z0.000000 I-0.400611 J1.301985
G03 X26.526721 Y17.836116 Z0.000000 I-0.811133 J1.091897
G03 X26.818987 Y18.415318 Z0.000000 I-2.214515 J1.480788
G01 X26.818987 Y18.415318 Z0.000000
G00 Z5.000000

(End cutting path id: path9534)


(Start cutting path id: path9534)
(Change tool to Default tool)

G00 Z5.000000
G00 X23.561304 Y20.019353

G01 Z0.000000 F20.0(Penetrate)
G01 X26.830011 Y20.019353 Z0.000000 F20.000000
G03 X26.681491 Y20.723853 Z0.000000 I-3.034198 J-0.271751
G03 X26.455184 Y21.127295 Z0.000000 I-1.191179 J-0.402986
G03 X25.909773 Y21.548943 Z0.000000 I-1.207887 J-0.998854
G03 X25.225974 Y21.700559 Z0.000000 I-0.683817 J-1.466264
G03 X24.592160 Y21.579038 Z0.000000 I0.000021 J-1.713753
G03 X24.076691 Y21.243052 Z0.000000 I0.576165 J-1.447361
G03 X23.729242 Y20.731337 Z0.000000 I1.102468 J-1.122378
G03 X23.561304 Y20.019353 Z0.000000 I2.028075 J-0.854167
G01 X23.561304 Y20.019353 Z0.000000
G00 Z5.000000

(End cutting path id: path9534)


(Start cutting path id: path9532)
(Change tool to Default tool)

G00 Z5.000000
G00 X14.813518 Y16.530161

G01 Z0.000000 F20.0(Penetrate)
G01 X14.813518 Y24.610976 Z0.000000 F20.000000
G01 X15.882876 Y24.610976 Z0.000000
G01 X15.882876 Y21.292661 Z0.000000
G01 X20.083136 Y21.292661 Z0.000000
G01 X20.083136 Y24.610976 Z0.000000
G01 X21.152494 Y24.610976 Z0.000000
G01 X21.152494 Y16.530161 Z0.000000
G01 X20.083136 Y16.530161 Z0.000000
G01 X20.083136 Y20.339057 Z0.000000
G01 X15.882876 Y20.339057 Z0.000000
G01 X15.882876 Y16.530161 Z0.000000
G01 X14.813518 Y16.530161 Z0.000000
G00 Z5.000000

(End cutting path id: path9532)


(Footer)
M5
G00 X0.0000 Y0.0000
M2
(end)
%