%
(Header)
(Generated by gcodetools from Inkscape.)
M3
(Header end.)
G21 (All units in mm)

(Start cutting path id: path3378)
(Change tool to Default tool)

G00 Z5.000000
G00 X54.487533 Y12.104098

G01 Z0.000000 F20.0(Penetrate)
G01 X54.487533 Y15.626364 Z0.000000 F20.000000
G01 X57.998428 Y13.876601 Z0.000000
G01 X57.998428 Y10.354335 Z0.000000
G01 X54.487533 Y12.104098 Z0.000000
G00 Z5.000000

(End cutting path id: path3378)


(Start cutting path id: path3378)
(Change tool to Default tool)

G00 Z5.000000
G00 X57.693538 Y13.820100

G01 Z0.000000 F20.0(Penetrate)
G01 X54.668401 Y15.332842 Z0.000000 F20.000000
G01 X54.668401 Y12.307358 Z0.000000
G01 X57.693538 Y13.820100 Z0.000000
G00 Z5.000000

(End cutting path id: path3378)


(Start cutting path id: path3378)
(Change tool to Default tool)

G00 Z5.000000
G00 X54.792423 Y12.160597

G01 Z0.000000 F20.0(Penetrate)
G01 X57.817908 Y10.659225 Z0.000000 F20.000000
G01 X57.817908 Y13.673339 Z0.000000
G01 X54.792423 Y12.160597 Z0.000000
G00 Z5.000000

(End cutting path id: path3378)


(Start cutting path id: path3378)
(Change tool to Default tool)

G00 Z5.000000
G00 X53.381312 Y17.195260

G01 Z0.000000 F20.0(Penetrate)
G01 X59.014389 Y20.017483 Z0.000000 F20.000000
G01 X64.647810 Y17.195260 Z0.000000
G01 X64.647810 Y11.550816 Z0.000000
G01 X59.014389 Y8.739962 Z0.000000
G01 X53.381312 Y11.550816 Z0.000000
G01 X53.381312 Y17.195260 Z0.000000
G00 Z5.000000

(End cutting path id: path3378)


(Start cutting path id: path3378)
(Change tool to Default tool)

G00 Z5.000000
G00 X59.104649 Y8.988354

G01 Z0.000000 F20.0(Penetrate)
G01 X64.466942 Y11.663815 Z0.000000 F20.000000
G01 X64.466942 Y16.992345 Z0.000000
G01 X59.104649 Y14.316884 Z0.000000
G01 X59.104649 Y8.988354 Z0.000000
G00 Z5.000000

(End cutting path id: path3378)


(Start cutting path id: path3378)
(Change tool to Default tool)

G00 Z5.000000
G00 X58.924126 Y14.316884

G01 Z0.000000 F20.0(Penetrate)
G01 X53.561836 Y16.992345 Z0.000000 F20.000000
G01 X53.561836 Y11.663815 Z0.000000
G01 X58.924126 Y8.988354 Z0.000000
G01 X58.924126 Y14.316884 Z0.000000
G00 Z5.000000

(End cutting path id: path3378)


(Start cutting path id: path3378)
(Change tool to Default tool)

G00 Z5.000000
G00 X59.014389 Y19.814568

G01 Z0.000000 F20.0(Penetrate)
G01 X53.674835 Y17.139107 Z0.000000 F20.000000
G01 X59.014389 Y14.474669 Z0.000000
G01 X64.342917 Y17.139107 Z0.000000
G01 X59.014389 Y19.814568 Z0.000000
G00 Z5.000000

(End cutting path id: path3378)


(Start cutting path id: path3376)
(Change tool to Default tool)

G00 Z5.000000
G00 X41.430965 Y17.195260

G01 Z0.000000 F20.0(Penetrate)
G01 X47.064042 Y20.017483 Z0.000000 F20.000000
G01 X52.697462 Y17.195260 Z0.000000
G01 X52.697462 Y11.550816 Z0.000000
G01 X47.064042 Y8.739962 Z0.000000
G01 X41.430965 Y11.550816 Z0.000000
G01 X41.430965 Y17.195260 Z0.000000
G00 Z5.000000

(End cutting path id: path3376)


(Start cutting path id: path3376)
(Change tool to Default tool)

G00 Z5.000000
G00 X42.842076 Y12.160597

G01 Z0.000000 F20.0(Penetrate)
G01 X47.064042 Y10.049444 Z0.000000 F20.000000
G01 X51.286351 Y12.160597 Z0.000000
G01 X47.064042 Y14.271407 Z0.000000
G01 X42.842076 Y12.160597 Z0.000000
G00 Z5.000000

(End cutting path id: path3376)


(Start cutting path id: path3376)
(Change tool to Default tool)

G00 Z5.000000
G00 X47.154302 Y8.988354

G01 Z0.000000 F20.0(Penetrate)
G01 X52.516595 Y11.663815 Z0.000000 F20.000000
G01 X52.516595 Y16.992345 Z0.000000
G01 X51.590897 Y16.529323 Z0.000000
G01 X51.590897 Y12.104098 Z0.000000
G01 X47.154302 Y9.891657 Z0.000000
G01 X47.154302 Y8.988354 Z0.000000
G00 Z5.000000

(End cutting path id: path3376)


(Start cutting path id: path3376)
(Change tool to Default tool)

G00 Z5.000000
G00 X51.399006 Y16.529323

G01 Z0.000000 F20.0(Penetrate)
G01 X47.154302 Y18.651502 Z0.000000 F20.000000
G01 X47.154302 Y14.429539 Z0.000000
G01 X51.399006 Y12.307358 Z0.000000
G01 X51.399006 Y16.529323 Z0.000000
G00 Z5.000000

(End cutting path id: path3376)


(Start cutting path id: path3376)
(Change tool to Default tool)

G00 Z5.000000
G00 X46.973778 Y18.651502

G01 Z0.000000 F20.0(Penetrate)
G01 X42.718054 Y16.529323 Z0.000000 F20.000000
G01 X42.718054 Y12.307358 Z0.000000
G01 X46.973778 Y14.429539 Z0.000000
G01 X46.973778 Y18.651502 Z0.000000
G00 Z5.000000

(End cutting path id: path3376)


(Start cutting path id: path3376)
(Change tool to Default tool)

G00 Z5.000000
G00 X42.537186 Y16.529323

G01 Z0.000000 F20.0(Penetrate)
G01 X41.611488 Y16.992345 Z0.000000 F20.000000
G01 X41.611488 Y11.663815 Z0.000000
G01 X46.973778 Y8.988354 Z0.000000
G01 X46.973778 Y9.891657 Z0.000000
G01 X42.537186 Y12.104098 Z0.000000
G01 X42.537186 Y16.529323 Z0.000000
G00 Z5.000000

(End cutting path id: path3376)


(Start cutting path id: path3376)
(Change tool to Default tool)

G00 Z5.000000
G00 X47.064042 Y19.814568

G01 Z0.000000 F20.0(Penetrate)
G01 X41.724487 Y17.139107 Z0.000000 F20.000000
G01 X42.627446 Y16.687452 Z0.000000
G01 X47.064042 Y18.911262 Z0.000000
G01 X51.500634 Y16.687452 Z0.000000
G01 X52.392569 Y17.139107 Z0.000000
G01 X47.064042 Y19.814568 Z0.000000
G00 Z5.000000

(End cutting path id: path3376)


(Start cutting path id: path3374)
(Change tool to Default tool)

G00 Z5.000000
G00 X29.480618 Y17.195260

G01 Z0.000000 F20.0(Penetrate)
G01 X35.113694 Y20.017483 Z0.000000 F20.000000
G01 X40.747115 Y17.195260 Z0.000000
G01 X40.747115 Y11.550816 Z0.000000
G01 X35.113694 Y8.739962 Z0.000000
G01 X29.480618 Y11.550816 Z0.000000
G01 X29.480618 Y17.195260 Z0.000000
G00 Z5.000000

(End cutting path id: path3374)


(Start cutting path id: path3374)
(Change tool to Default tool)

G00 Z5.000000
G00 X30.891729 Y12.160597

G01 Z0.000000 F20.0(Penetrate)
G01 X35.113694 Y10.049444 Z0.000000 F20.000000
G01 X39.336004 Y12.160597 Z0.000000
G01 X35.113694 Y14.271407 Z0.000000
G01 X30.891729 Y12.160597 Z0.000000
G00 Z5.000000

(End cutting path id: path3374)


(Start cutting path id: path3374)
(Change tool to Default tool)

G00 Z5.000000
G00 X35.203955 Y8.988354

G01 Z0.000000 F20.0(Penetrate)
G01 X40.566247 Y11.663815 Z0.000000 F20.000000
G01 X40.566247 Y16.992345 Z0.000000
G01 X39.640550 Y16.529323 Z0.000000
G01 X39.640550 Y12.104098 Z0.000000
G01 X35.203955 Y9.891657 Z0.000000
G01 X35.203955 Y8.988354 Z0.000000
G00 Z5.000000

(End cutting path id: path3374)


(Start cutting path id: path3374)
(Change tool to Default tool)

G00 Z5.000000
G00 X39.448659 Y16.529323

G01 Z0.000000 F20.0(Penetrate)
G01 X35.203955 Y18.651502 Z0.000000 F20.000000
G01 X35.203955 Y14.429539 Z0.000000
G01 X39.448659 Y12.307358 Z0.000000
G01 X39.448659 Y16.529323 Z0.000000
G00 Z5.000000

(End cutting path id: path3374)


(Start cutting path id: path3374)
(Change tool to Default tool)

G00 Z5.000000
G00 X35.023431 Y18.651502

G01 Z0.000000 F20.0(Penetrate)
G01 X30.767706 Y16.529323 Z0.000000 F20.000000
G01 X30.767706 Y12.307358 Z0.000000
G01 X35.023431 Y14.429539 Z0.000000
G01 X35.023431 Y18.651502 Z0.000000
G00 Z5.000000

(End cutting path id: path3374)


(Start cutting path id: path3374)
(Change tool to Default tool)

G00 Z5.000000
G00 X30.586839 Y16.529323

G01 Z0.000000 F20.0(Penetrate)
G01 X29.661141 Y16.992345 Z0.000000 F20.000000
G01 X29.661141 Y11.663815 Z0.000000
G01 X35.023431 Y8.988354 Z0.000000
G01 X35.023431 Y9.891657 Z0.000000
G01 X30.586839 Y12.104098 Z0.000000
G01 X30.586839 Y16.529323 Z0.000000
G00 Z5.000000

(End cutting path id: path3374)


(Start cutting path id: path3374)
(Change tool to Default tool)

G00 Z5.000000
G00 X35.113694 Y19.814568

G01 Z0.000000 F20.0(Penetrate)
G01 X29.774140 Y17.139107 Z0.000000 F20.000000
G01 X30.677099 Y16.687452 Z0.000000
G01 X35.113694 Y18.911262 Z0.000000
G01 X39.550287 Y16.687452 Z0.000000
G01 X40.442222 Y17.139107 Z0.000000
G01 X35.113694 Y19.814568 Z0.000000
G00 Z5.000000

(End cutting path id: path3374)


(Start cutting path id: path3372)
(Change tool to Default tool)

G00 Z5.000000
G00 X17.530270 Y17.195260

G01 Z0.000000 F20.0(Penetrate)
G01 X23.163347 Y20.017483 Z0.000000 F20.000000
G01 X28.796768 Y17.195260 Z0.000000
G01 X28.796768 Y11.550816 Z0.000000
G01 X23.163347 Y8.739962 Z0.000000
G01 X17.530270 Y11.550816 Z0.000000
G01 X17.530270 Y17.195260 Z0.000000
G00 Z5.000000

(End cutting path id: path3372)


(Start cutting path id: path3372)
(Change tool to Default tool)

G00 Z5.000000
G00 X18.817359 Y12.307358

G01 Z0.000000 F20.0(Penetrate)
G01 X19.630057 Y12.713879 Z0.000000 F20.000000
G01 X18.817359 Y13.120056 Z0.000000
G01 X18.817359 Y12.307358 Z0.000000
G00 Z5.000000

(End cutting path id: path3372)


(Start cutting path id: path3372)
(Change tool to Default tool)

G00 Z5.000000
G00 X18.941382 Y12.160597

G01 Z0.000000 F20.0(Penetrate)
G01 X23.163347 Y10.049444 Z0.000000 F20.000000
G01 X27.385657 Y12.160597 Z0.000000
G01 X24.269912 Y13.718469 Z0.000000
G01 X20.950905 Y12.058968 Z0.000000
G01 X19.833317 Y12.612251 Z0.000000
G01 X18.941382 Y12.160597 Z0.000000
G00 Z5.000000

(End cutting path id: path3372)


(Start cutting path id: path3372)
(Change tool to Default tool)

G00 Z5.000000
G00 X18.817359 Y14.519799

G01 Z0.000000 F20.0(Penetrate)
G01 X19.630057 Y14.926321 Z0.000000 F20.000000
G01 X18.817359 Y15.332842 Z0.000000
G01 X18.817359 Y14.519799 Z0.000000
G00 Z5.000000

(End cutting path id: path3372)


(Start cutting path id: path3372)
(Change tool to Default tool)

G00 Z5.000000
G00 X18.941382 Y14.373038

G01 Z0.000000 F20.0(Penetrate)
G01 X20.950905 Y13.368448 Z0.000000 F20.000000
G01 X21.842496 Y13.820100 Z0.000000
G01 X19.833317 Y14.824690 Z0.000000
G01 X18.941382 Y14.373038 Z0.000000
G00 Z5.000000

(End cutting path id: path3372)


(Start cutting path id: path3372)
(Change tool to Default tool)

G00 Z5.000000
G00 X21.041168 Y12.307358

G01 Z0.000000 F20.0(Penetrate)
G01 X22.960085 Y13.266817 Z0.000000 F20.000000
G01 X22.057126 Y13.718469 Z0.000000
G01 X21.041168 Y13.210319 Z0.000000
G01 X21.041168 Y12.307358 Z0.000000
G00 Z5.000000

(End cutting path id: path3372)


(Start cutting path id: path3372)
(Change tool to Default tool)

G00 Z5.000000
G00 X27.498311 Y15.332842

G01 Z0.000000 F20.0(Penetrate)
G01 X24.472827 Y13.820100 Z0.000000 F20.000000
G01 X27.498311 Y12.307358 Z0.000000
G01 X27.498311 Y15.332842 Z0.000000
G00 Z5.000000

(End cutting path id: path3372)


(Start cutting path id: path3372)
(Change tool to Default tool)

G00 Z5.000000
G00 X23.253607 Y8.988354

G01 Z0.000000 F20.0(Penetrate)
G01 X28.615900 Y11.663815 Z0.000000 F20.000000
G01 X28.615900 Y16.992345 Z0.000000
G01 X23.253607 Y14.316884 Z0.000000
G01 X23.253607 Y13.413579 Z0.000000
G01 X27.690203 Y15.626364 Z0.000000
G01 X27.690203 Y12.104098 Z0.000000
G01 X23.253607 Y9.891657 Z0.000000
G01 X23.253607 Y8.988354 Z0.000000
G00 Z5.000000

(End cutting path id: path3372)


(Start cutting path id: path3372)
(Change tool to Default tool)

G00 Z5.000000
G00 X23.073084 Y14.316884

G01 Z0.000000 F20.0(Penetrate)
G01 X17.710794 Y16.992345 Z0.000000 F20.000000
G01 X17.710794 Y11.663815 Z0.000000
G01 X23.073084 Y8.988354 Z0.000000
G01 X23.073084 Y9.891657 Z0.000000
G01 X18.636491 Y12.104098 Z0.000000
G01 X18.636491 Y13.413579 Z0.000000
G01 X20.849277 Y12.307358 Z0.000000
G01 X20.849277 Y13.210319 Z0.000000
G01 X18.636491 Y14.316884 Z0.000000
G01 X18.636491 Y15.626364 Z0.000000
G01 X23.073084 Y13.413579 Z0.000000
G01 X23.073084 Y14.316884 Z0.000000
G00 Z5.000000

(End cutting path id: path3372)


(Start cutting path id: path3372)
(Change tool to Default tool)

G00 Z5.000000
G00 X23.163347 Y19.814568

G01 Z0.000000 F20.0(Penetrate)
G01 X17.823793 Y17.139107 Z0.000000 F20.000000
G01 X23.163347 Y14.474669 Z0.000000
G01 X28.491875 Y17.139107 Z0.000000
G01 X23.163347 Y19.814568 Z0.000000
G00 Z5.000000

(End cutting path id: path3372)


(Start cutting path id: path3370)
(Change tool to Default tool)

G00 Z5.000000
G00 X5.579924 Y17.195260

G01 Z0.000000 F20.0(Penetrate)
G01 X11.212999 Y20.017483 Z0.000000 F20.000000
G01 X16.846421 Y17.195260 Z0.000000
G01 X16.846421 Y11.550816 Z0.000000
G01 X11.212999 Y8.739962 Z0.000000
G01 X10.016517 Y9.338374 Z0.000000
G01 X10.016517 Y11.550816 Z0.000000
G01 X9.000559 Y12.058968 Z0.000000
G01 X6.776405 Y10.952748 Z0.000000
G01 X5.579924 Y11.550816 Z0.000000
G01 X5.579924 Y17.195260 Z0.000000
G00 Z5.000000

(End cutting path id: path3370)


(Start cutting path id: path3370)
(Change tool to Default tool)

G00 Z5.000000
G00 X6.867011 Y13.120056

G01 Z0.000000 F20.0(Penetrate)
G01 X6.867011 Y11.201140 Z0.000000 F20.000000
G01 X8.785929 Y12.160597 Z0.000000
G01 X6.867011 Y13.120056 Z0.000000
G00 Z5.000000

(End cutting path id: path3370)


(Start cutting path id: path3370)
(Change tool to Default tool)

G00 Z5.000000
G00 X10.197041 Y11.663815

G01 Z0.000000 F20.0(Penetrate)
G01 X10.197041 Y9.451376 Z0.000000 F20.000000
G01 X11.122738 Y8.988354 Z0.000000
G01 X11.122738 Y14.316884 Z0.000000
G01 X10.197041 Y14.779560 Z0.000000
G01 X10.197041 Y12.567118 Z0.000000
G01 X6.686144 Y14.316884 Z0.000000
G01 X6.686144 Y16.529323 Z0.000000
G01 X5.760447 Y16.992345 Z0.000000
G01 X5.760447 Y11.663815 Z0.000000
G01 X6.686144 Y11.201140 Z0.000000
G01 X6.686144 Y13.413579 Z0.000000
G01 X10.197041 Y11.663815 Z0.000000
G00 Z5.000000

(End cutting path id: path3370)


(Start cutting path id: path3370)
(Change tool to Default tool)

G00 Z5.000000
G00 X12.116303 Y16.032542

G01 Z0.000000 F20.0(Penetrate)
G01 X11.212999 Y16.484193 Z0.000000 F20.000000
G01 X6.991035 Y14.373038 Z0.000000
G01 X10.016517 Y12.860296 Z0.000000
G01 X10.016517 Y14.982819 Z0.000000
G01 X12.116303 Y16.032542 Z0.000000
G00 Z5.000000

(End cutting path id: path3370)


(Start cutting path id: path3370)
(Change tool to Default tool)

G00 Z5.000000
G00 X14.328744 Y17.139107

G01 Z0.000000 F20.0(Penetrate)
G01 X11.303261 Y18.651502 Z0.000000 F20.000000
G01 X11.303261 Y16.642322 Z0.000000
G01 X12.319564 Y16.134170 Z0.000000
G01 X14.328744 Y17.139107 Z0.000000
G00 Z5.000000

(End cutting path id: path3370)


(Start cutting path id: path3370)
(Change tool to Default tool)

G00 Z5.000000
G00 X11.122738 Y18.651502

G01 Z0.000000 F20.0(Penetrate)
G01 X6.867011 Y16.529323 Z0.000000 F20.000000
G01 X6.867011 Y14.519799 Z0.000000
G01 X11.122738 Y16.642322 Z0.000000
G01 X11.122738 Y18.651502 Z0.000000
G00 Z5.000000

(End cutting path id: path3370)


(Start cutting path id: path3370)
(Change tool to Default tool)

G00 Z5.000000
G00 X11.303261 Y8.988354

G01 Z0.000000 F20.0(Penetrate)
G01 X16.665553 Y11.663815 Z0.000000 F20.000000
G01 X16.665553 Y16.992345 Z0.000000
G01 X11.303261 Y14.316884 Z0.000000
G01 X11.303261 Y8.988354 Z0.000000
G00 Z5.000000

(End cutting path id: path3370)


(Start cutting path id: path3370)
(Change tool to Default tool)

G00 Z5.000000
G00 X11.212999 Y19.814568

G01 Z0.000000 F20.0(Penetrate)
G01 X5.873446 Y17.139107 Z0.000000 F20.000000
G01 X6.776405 Y16.687452 Z0.000000
G01 X11.212999 Y18.911262 Z0.000000
G01 X14.746634 Y17.139107 Z0.000000
G01 X10.310040 Y14.926321 Z0.000000
G01 X11.212999 Y14.474669 Z0.000000
G01 X16.541527 Y17.139107 Z0.000000
G01 X11.212999 Y19.814568 Z0.000000
G00 Z5.000000

(End cutting path id: path3370)


(Footer)
M5
G00 X0.0000 Y0.0000
M2
(end)
%