%
(Header)
(Generated by gcodetools from Inkscape.)
M3
(Header end.)
G21 (All units in mm)

(Start cutting path id: path3274)
(Change tool to Default tool)

G00 Z5.000000
G00 X55.738889 Y21.267458

G01 Z0.000000 F20.0(Penetrate)
G01 X55.738889 Y25.500791 Z0.000000 F20.000000
G01 X51.505556 Y25.500791 Z0.000000
G01 X51.505556 Y21.267458 Z0.000000
G01 X55.738889 Y21.267458 Z0.000000
G00 Z5.000000

(End cutting path id: path3274)


(Start cutting path id: path3274)
(Change tool to Default tool)

G00 Z5.000000
G00 X50.094445 Y19.856347

G01 Z0.000000 F20.0(Penetrate)
G01 X50.094445 Y26.911903 Z0.000000 F20.000000
G01 X57.150000 Y26.911903 Z0.000000
G01 X57.150000 Y19.856347 Z0.000000
G01 X50.094445 Y19.856347 Z0.000000
G00 Z5.000000

(End cutting path id: path3274)


(Start cutting path id: path3272)
(Change tool to Default tool)

G00 Z5.000000
G00 X41.627778 Y19.856347

G01 Z0.000000 F20.0(Penetrate)
G01 X41.627778 Y26.911903 Z0.000000 F20.000000
G01 X43.038889 Y26.911903 Z0.000000
G01 X43.038889 Y21.267458 Z0.000000
G01 X48.683334 Y21.267458 Z0.000000
G01 X48.683334 Y19.856347 Z0.000000
G01 X41.627778 Y19.856347 Z0.000000
G00 Z5.000000

(End cutting path id: path3272)


(Start cutting path id: path3270)
(Change tool to Default tool)

G00 Z5.000000
G00 X33.161111 Y19.856347

G01 Z0.000000 F20.0(Penetrate)
G01 X33.161111 Y26.911903 Z0.000000 F20.000000
G01 X34.572222 Y26.911903 Z0.000000
G01 X34.572222 Y21.267458 Z0.000000
G01 X40.216667 Y21.267458 Z0.000000
G01 X40.216667 Y19.856347 Z0.000000
G01 X33.161111 Y19.856347 Z0.000000
G00 Z5.000000

(End cutting path id: path3270)


(Start cutting path id: path3268)
(Change tool to Default tool)

G00 Z5.000000
G00 X24.694445 Y19.856347

G01 Z0.000000 F20.0(Penetrate)
G01 X24.694445 Y26.911903 Z0.000000 F20.000000
G01 X31.750000 Y26.911903 Z0.000000
G01 X31.750000 Y25.500791 Z0.000000
G01 X26.105556 Y25.500791 Z0.000000
G01 X26.105556 Y24.089680 Z0.000000
G01 X28.927778 Y24.089680 Z0.000000
G01 X28.927778 Y22.678569 Z0.000000
G01 X26.105556 Y22.678569 Z0.000000
G01 X26.105556 Y21.267458 Z0.000000
G01 X31.750000 Y21.267458 Z0.000000
G01 X31.750000 Y19.856347 Z0.000000
G01 X24.694445 Y19.856347 Z0.000000
G00 Z5.000000

(End cutting path id: path3268)


(Start cutting path id: path3266)
(Change tool to Default tool)

G00 Z5.000000
G00 X16.227778 Y19.856347

G01 Z0.000000 F20.0(Penetrate)
G01 X16.227778 Y26.911903 Z0.000000 F20.000000
G01 X17.638889 Y26.911903 Z0.000000
G01 X17.638889 Y24.089680 Z0.000000
G01 X21.872222 Y24.089680 Z0.000000
G01 X21.872222 Y26.911903 Z0.000000
G01 X23.283333 Y26.911903 Z0.000000
G01 X23.283333 Y19.856347 Z0.000000
G01 X21.872222 Y19.856347 Z0.000000
G01 X21.872222 Y22.678569 Z0.000000
G01 X17.638889 Y22.678569 Z0.000000
G01 X17.638889 Y19.856347 Z0.000000
G01 X16.227778 Y19.856347 Z0.000000
G00 Z5.000000

(End cutting path id: path3266)


(Footer)
M5
G00 X0.0000 Y0.0000
M2
(end)
%