%
(Header)
(Generated by gcodetools from Inkscape.)

M3
(Header end.)
G21 (All units in mm)

(Start cutting path id: path9216)
(Change tool to Default tool)

G00 Z5.000000
G00 X33.060317 Y14.111107

G01 Z0.000000 F20.0(Penetrate)
G01 X26.313243 Y22.406403 Z0.000000 F20.000000
G01 X16.454095 Y18.267300 Z0.000000
G01 X22.258432 Y27.247538 Z0.000000
G01 X15.275265 Y35.345089 Z0.000000
G01 X25.609617 Y32.599886 Z0.000000
G01 X31.152931 Y41.743553 Z0.000000
G01 X31.735575 Y31.066685 Z0.000000
G01 X42.144698 Y28.620228 Z0.000000
G01 X32.170440 Y24.766768 Z0.000000
G01 X33.060317 Y14.111107 Z0.000000
G00 Z5.000000

(End cutting path id: path9216)


(Footer)
M5
G00 X0.0000 Y0.0000
M2

(end)
%